X:263
T: Ach, herzallerliebste mein (3-65), S. 187
N: P1038
O: Lothringen
S: PINCK, Louis: Verklingende Weisen, Bd3, Metz 1933]
R: Treuversprechen]
M: 2/4
L: 1/16
K: G
D4 | G4A2c2B4A4 | G8z4
d2e2 | d4c3ed4c2B2 | A8z4
B2A2 | G4A2B2c4B4 | A8z4
A2B2 | c4c4c6d2 | c4
B2A2 | B4c2e2d4d2c2 | d4
A2c2 | B4A2G2F8 | G8z4

